X:2239
T:Girl Who Broke My Heart, The
O:england
R:reel
H:Usually in Gmix, see #147.
M:C|
K:Ador
ed|:cAGE FD~D2|EAAG ABcd|efge dcAG|EGGF G2ed|
cAGE FD~D2|EAAG ABcd|efge dcAG|1 EAAG A2ed:|2 EAAG AEFG||
|:A2ce aecA|G2Bd gdBG|A2ce gdce|dcde dBGB|
A2ce aecA|G2Bd gdBG|ABce dcAG|1 EAAG AEFG:|2 EAAG A2||


